images/pinterest.svg

<svg width="24" height="24" fill="currentColor" xmlns="http://www.w3.org/2000/svg"><path d="M12 0C5.373 0 0 5.372 0 12c0 5.084 3.163 9.426 7.627 11.174-.105-.949-.2-2.405.042-3.441.218-.937 1.407-5.965 1.407-5.965s-.359-.719-.359-1.782c0-1.668.967-2.914 2.171-2.914 1.023 0 1.518.769 1.518 1.69 0 1.029-.655 2.568-.994 3.995-.283 1.194.599 2.169 1.777 2.169 2.133 0 3.772-2.249 3.772-5.495 0-2.873-2.064-4.882-5.012-4.882-3.414 0-5.418 2.561-5.418 5.207 0 1.031.397 2.138.893 2.738a.36.36 0 0 1 .083.345l-.333 1.36c-.053.22-.174.267-.402.161-1.499-.698-2.436-2.889-2.436-4.649 0-3.785 2.75-7.262 7.929-7.262 4.163 0 7.398 2.967 7.398 6.931 0 4.136-2.607 7.464-6.227 7.464-1.216 0-2.359-.631-2.75-1.378l-.748 2.853c-.271 1.043-1.002 2.35-1.492 3.146C9.57 23.812 10.763 24 12 24c6.627 0 12-5.373 12-12 0-6.628-5.373-12-12-12Z"/></svg>

<svg width="24" height="24" viewBox="0 0 24 24" fill="currentColor" xmlns="http://www.w3.org/2000/svg">
<path d="M12 0C5.373 0 0 5.372 0 12C0 17.084 3.163 21.426 7.627 23.174C7.522 22.225 7.427 20.769 7.669 19.733C7.887 18.796 9.076 13.768 9.076 13.768C9.076 13.768 8.717 13.049 8.717 11.986C8.717 10.318 9.684 9.072 10.888 9.072C11.911 9.072 12.406 9.841 12.406 10.762C12.406 11.791 11.751 13.33 11.412 14.757C11.129 15.951 12.011 16.926 13.189 16.926C15.322 16.926 16.961 14.677 16.961 11.431C16.961 8.558 14.897 6.549 11.949 6.549C8.535 6.549 6.531 9.11 6.531 11.756C6.531 12.787 6.928 13.894 7.424 14.494C7.522 14.613 7.536 14.718 7.507 14.839L7.174 16.199C7.121 16.419 7 16.466 6.772 16.36C5.273 15.662 4.336 13.471 4.336 11.711C4.336 7.926 7.086 4.449 12.265 4.449C16.428 4.449 19.663 7.416 19.663 11.38C19.663 15.516 17.056 18.844 13.436 18.844C12.22 18.844 11.077 18.213 10.686 17.466L9.938 20.319C9.667 21.362 8.936 22.669 8.446 23.465C9.57 23.812 10.763 24 12 24C18.627 24 24 18.627 24 12C24 5.372 18.627 0 12 0Z" fill="currentColor"/>
</svg>
